frontend/src/assets/images/award.svg

<svg width="385" height="513" viewBox="0 0 385 513" fill="none" xmlns="http://www.w3.org/2000/svg">
<path d="M173.852 5.475C184.852 -1.825 199.252 -1.825 210.252 5.475L228.052 17.175C234.052 21.075 241.052 22.975 248.152 22.575L269.452 21.275C282.652 20.475 295.052 27.675 300.952 39.475L310.552 58.575C313.752 64.975 318.952 70.075 325.252 73.275L344.552 82.975C356.352 88.875 363.552 101.275 362.752 114.475L361.452 135.775C361.052 142.875 362.952 149.975 366.852 155.875L378.652 173.675C385.952 184.675 385.952 199.075 378.652 210.075L366.852 227.975C362.952 233.975 361.052 240.975 361.452 248.075L362.752 269.375C363.552 282.575 356.352 294.975 344.552 300.875L325.452 310.475C319.052 313.675 313.952 318.875 310.752 325.175L301.052 344.475C295.152 356.275 282.752 363.475 269.552 362.675L248.252 361.375C241.152 360.975 234.052 362.875 228.152 366.775L210.352 378.575C199.352 385.875 184.952 385.875 173.952 378.575L156.052 366.775C150.052 362.875 143.052 360.975 135.952 361.375L114.652 362.675C101.452 363.475 89.0517 356.275 83.1517 344.475L73.5517 325.375C70.3517 318.975 65.1517 313.875 58.8517 310.675L39.5517 300.975C27.7517 295.075 20.5517 282.675 21.3517 269.475L22.6517 248.175C23.0517 241.075 21.1517 233.975 17.2517 228.075L5.55172 210.175C-1.74828 199.175 -1.74828 184.775 5.55172 173.775L17.2517 155.975C21.1517 149.975 23.0517 142.975 22.6517 135.875L21.3517 114.575C20.5517 101.375 27.7517 88.975 39.5517 83.075L58.6517 73.475C65.0517 70.175 70.2517 64.975 73.4517 58.575L83.0517 39.475C88.9517 27.675 101.352 20.475 114.552 21.275L135.852 22.575C142.952 22.975 150.052 21.075 155.952 17.175L173.852 5.475ZM272.052 191.975C272.052 170.758 263.623 150.409 248.62 135.406C233.617 120.404 213.269 111.975 192.052 111.975C170.834 111.975 150.486 120.404 135.483 135.406C120.48 150.409 112.052 170.758 112.052 191.975C112.052 213.192 120.48 233.541 135.483 248.544C150.486 263.546 170.834 271.975 192.052 271.975C213.269 271.975 233.617 263.546 248.62 248.544C263.623 233.541 272.052 213.192 272.052 191.975ZM1.35172 441.775L44.4517 339.275C44.6517 339.375 44.7517 339.475 44.8517 339.675L54.4517 358.775C66.1517 381.975 90.4517 396.075 116.452 394.575L137.752 393.275C137.952 393.275 138.252 393.275 138.452 393.475L156.252 405.275C161.352 408.575 166.752 411.175 172.352 412.975L134.752 502.275C132.452 507.775 127.352 511.475 121.452 511.975C115.552 512.475 109.852 509.775 106.652 504.775L74.4517 455.475L18.3517 463.775C12.6517 464.575 6.95172 462.275 3.35172 457.775C-0.248276 453.275 -0.948276 447.075 1.25172 441.775H1.35172ZM249.352 502.175L211.752 412.975C217.352 411.175 222.752 408.675 227.852 405.275L245.652 393.475C245.852 393.375 246.052 393.275 246.352 393.275L267.652 394.575C293.652 396.075 317.952 381.975 329.652 358.775L339.252 339.675C339.352 339.475 339.452 339.375 339.652 339.275L382.852 441.775C385.052 447.075 384.252 453.175 380.752 457.775C377.252 462.375 371.452 464.675 365.752 463.775L309.652 455.475L277.452 504.675C274.252 509.675 268.552 512.375 262.652 511.875C256.752 511.375 251.652 507.575 249.352 502.175Z" fill="#5B64A0"/>
</svg>

<svg xmlns="http://www.w3.org/2000/svg" viewBox="0 0 384 512"><!--!Font Awesome Free 6.7.2 by @fontawesome - https://fontawesome.com License - https://fontawesome.com/license/free Copyright 2025 Fonticons, Inc.--><path d="M173.8 5.5c11-7.3 25.4-7.3 36.4 0L228 17.2c6 3.9 13 5.8 20.1 5.4l21.3-1.3c13.2-.8 25.6 6.4 31.5 18.2l9.6 19.1c3.2 6.4 8.4 11.5 14.7 14.7L344.5 83c11.8 5.9 19 18.3 18.2 31.5l-1.3 21.3c-.4 7.1 1.5 14.2 5.4 20.1l11.8 17.8c7.3 11 7.3 25.4 0 36.4L366.8 228c-3.9 6-5.8 13-5.4 20.1l1.3 21.3c.8 13.2-6.4 25.6-18.2 31.5l-19.1 9.6c-6.4 3.2-11.5 8.4-14.7 14.7L301 344.5c-5.9 11.8-18.3 19-31.5 18.2l-21.3-1.3c-7.1-.4-14.2 1.5-20.1 5.4l-17.8 11.8c-11 7.3-25.4 7.3-36.4 0L156 366.8c-6-3.9-13-5.8-20.1-5.4l-21.3 1.3c-13.2 .8-25.6-6.4-31.5-18.2l-9.6-19.1c-3.2-6.4-8.4-11.5-14.7-14.7L39.5 301c-11.8-5.9-19-18.3-18.2-31.5l1.3-21.3c.4-7.1-1.5-14.2-5.4-20.1L5.5 210.2c-7.3-11-7.3-25.4 0-36.4L17.2 156c3.9-6 5.8-13 5.4-20.1l-1.3-21.3c-.8-13.2 6.4-25.6 18.2-31.5l19.1-9.6C65 70.2 70.2 65 73.4 58.6L83 39.5c5.9-11.8 18.3-19 31.5-18.2l21.3 1.3c7.1 .4 14.2-1.5 20.1-5.4L173.8 5.5zM272 192a80 80 0 1 0 -160 0 80 80 0 1 0 160 0zM1.3 441.8L44.4 339.3c.2 .1 .3 .2 .4 .4l9.6 19.1c11.7 23.2 36 37.3 62 35.8l21.3-1.3c.2 0 .5 0 .7 .2l17.8 11.8c5.1 3.3 10.5 5.9 16.1 7.7l-37.6 89.3c-2.3 5.5-7.4 9.2-13.3 9.7s-11.6-2.2-14.8-7.2L74.4 455.5l-56.1 8.3c-5.7 .8-11.4-1.5-15-6s-4.3-10.7-2.1-16zm248 60.4L211.7 413c5.6-1.8 11-4.3 16.1-7.7l17.8-11.8c.2-.1 .4-.2 .7-.2l21.3 1.3c26 1.5 50.3-12.6 62-35.8l9.6-19.1c.1-.2 .2-.3 .4-.4l43.2 102.5c2.2 5.3 1.4 11.4-2.1 16s-9.3 6.9-15 6l-56.1-8.3-32.2 49.2c-3.2 5-8.9 7.7-14.8 7.2s-11-4.3-13.3-9.7z"/></svg>
